X:1
T:Newman, 76.76 D
T:Richard S. Newman, before 1901
T:Newman, 76.76 D
T:Public Domain
C:Richard S. Newman, before 1901
Z:Public Domain
%%score ( 1 2 ) ( 3 4 )
L:1/8
M:4/4
K:F
V:1 treble 
V:2 treble 
V:3 bass 
V:4 bass 
V:1
 ([Ac][GB]) | [FA]2 [FA]2 [GB]2 [FA]2 | [FA]4 [EG]2 ([Bd][Ac]) | [GB]2 [GB]2 [Ec]3 [GB] | %4
 [FA]4 z2 (AB) | [Fc]2 [Cc]2 [D=B]2 [_EA]2 | [EG]2 [Ge]2 [Ec]2 [FA]2 | [EG]3 [EG] [FA]2 [D=B]2 | %8
 [Ec]4 z2 ([Ac][GB]) | [^FA]2 [FA]2 [FB]2 [FA]2 | G2 ^F2 [Gd]2 ([GB][=FA]) | %11
 [EG]2 [EG]2 [EA]2 [EG]2 | F2 E2 F2 (de) | [Af]2 [cf]2 [ce]2 [Bd]2 | [Ac]3 [GB] [FA]2 FE | %15
 [DF]2 ([Ec][DB]) [CA]2 [EG]2 | F6 |] %17
V:2
 x2 | x8 | x8 | x8 | x6 F2 | x8 | x8 | x8 | x8 | x8 | d4 x4 | x8 | c6 B2 | x8 | x6 F2 | x8 | F6 |] %17
V:3
 (A,B,) | [F,C]2 [F,C]2 [E,C]2 [F,C]2 | [C,C]4 [C,C]2 [C,C]2 | [E,C]2 [E,C]2 [C,C]2 [E,C]2 | %4
 [F,C]4 z2 (F,G,) | [A,C]2 [F,A,]2 [F,_A,]2 [^F,=A,]2 | [G,C]4 [A,C]2 [F,C]2 | %7
 [G,C]3 [G,C] [G,=B,]2 G,2 | [C,G,]4 z2 [A,,A,]2 | [D,A,]2 [D,D]2 [CD]2 [CD]2 | %10
 [B,D]2 [A,C]2 [G,B,]2 [G,,G,]2 | [C,G,]2 [C,C]2 [B,C]2 [B,C]2 | [A,C]2 [G,B,]2 [F,A,]2 [C,C]2 | %13
 [F,C]2 [F,A,]2 (B,C)(DE) | F2 C2 [F,C]2 [A,C]2 | B,2 [B,,B,]2 [C,F,]2 [C,B,]2 | [F,A,]6 |] %17
V:4
 F,2 | x8 | x8 | x8 | x6 C2 | x8 | x8 | x6 G,2 | x8 | x8 | x8 | x8 | x8 | x4 F,2 F,2 | F,4 x4 | %15
 B,2 x6 | x6 |] %17

